X:3663
L:1/8
M:4/4
K:Emin
 BA |"Em" GEEE"Em/D#" ^D2 EF |"Em/D" GEFG"G" B2 AB |"Am" cABc"B7" ^d2 ef | 
"F#m7b5" gfe^c"B7" ^d=cBA |"Em" GEEE"Em/D#" ^D2 EF |"Em/D" GEFG"G" B2 AB |"Am" cABc"B7" ^de f2 | 
"C" gf"B7"e^d"Em" e2 ^de ||"F" =fcAG F2 GA |"D+" _BAG^F"Gm" G3 =F |"C" =FEGE cE"C6"AG | 
"F" G=FEF"C" c2 de |"F" =fcAG F2 GF |"Em" E^DEG B2 AB |"Am" cBAB"F#7" ^c^dec |"B7" ^d^cBA B2 BA ||

